humanity-icon-theme/Humanity/actions/24/zoom-best-fit.svg

<?xml version="1.0" encoding="UTF-8" standalone="no"?>
<!-- Created with Inkscape (http://www.inkscape.org/) -->

<svg
   xmlns:svg="http://www.w3.org/2000/svg"
   xmlns="http://www.w3.org/2000/svg"
   xmlns:xlink="http://www.w3.org/1999/xlink"
   version="1.0"
   width="24"
   height="24"
   id="svg2">
  <defs
     id="defs4">
    <linearGradient
       id="linearGradient3277-442">
      <stop
         id="stop3378"
         style="stop-color:#575757;stop-opacity:1"
         offset="0" />
      <stop
         id="stop3380"
         style="stop-color:#333333;stop-opacity:1"
         offset="1" />
    </linearGradient>
    <linearGradient
       x1="32.892574"
       y1="27.988184"
       x2="31.364458"
       y2="29.484051"
       id="linearGradient2543"
       xlink:href="#linearGradient3277-442"
       gradientUnits="userSpaceOnUse"
       gradientTransform="matrix(0.5018785,0,0,0.462207,-0.3803386,1.9030377)" />
    <linearGradient
       id="linearGradient11114-516">
      <stop
         id="stop3372"
         style="stop-color:#242424;stop-opacity:0.99215686"
         offset="0" />
      <stop
         id="stop3374"
         style="stop-color:#656565;stop-opacity:1"
         offset="1" />
    </linearGradient>
    <linearGradient
       x1="-172.65306"
       y1="99.667191"
       x2="-164.71831"
       y2="91.972626"
       id="linearGradient2541"
       xlink:href="#linearGradient11114-516"
       gradientUnits="userSpaceOnUse"
       gradientTransform="matrix(0.1953514,0,0,0.1799097,50.0016,-0.8912687)" />
    <linearGradient
       id="linearGradient3294">
      <stop
         id="stop3296"
         style="stop-color:#ffffff;stop-opacity:0.19520548"
         offset="0" />
      <stop
         id="stop3298"
         style="stop-color:#ffffff;stop-opacity:0"
         offset="1" />
    </linearGradient>
    <linearGradient
       x1="212.04402"
       y1="123.74026"
       x2="210.58083"
       y2="74.261711"
       id="linearGradient2538"
       xlink:href="#linearGradient3294"
       gradientUnits="userSpaceOnUse"
       gradientTransform="matrix(0.1953514,0,0,0.1799097,-25.223109,0.847388)" />
    <linearGradient
       id="linearGradient4454-600">
      <stop
         id="stop3408"
         style="stop-color:#ffffff;stop-opacity:0.64726025"
         offset="0" />
      <stop
         id="stop3410"
         style="stop-color:#ffffff;stop-opacity:0.19520548"
         offset="1" />
    </linearGradient>
    <radialGradient
       cx="18.240929"
       cy="21.817987"
       r="8.3085051"
       fx="18.240929"
       fy="21.817987"
       id="radialGradient2514"
       xlink:href="#linearGradient4454-600"
       gradientUnits="userSpaceOnUse"
       gradientTransform="matrix(0.71072785,0,0,0.71351452,-4.3440884,-5.2196083)" />
    <linearGradient
       id="linearGradient4467-402">
      <stop
         id="stop3390"
         style="stop-color:#ffffff;stop-opacity:1"
         offset="0" />
      <stop
         id="stop3392"
         style="stop-color:#ffffff;stop-opacity:0.24761905"
         offset="1" />
    </linearGradient>
    <radialGradient
       cx="15.414371"
       cy="13.078408"
       r="6.65625"
       fx="15.414371"
       fy="13.078408"
       id="radialGradient2533"
       xlink:href="#linearGradient4467-402"
       gradientUnits="userSpaceOnUse"
       gradientTransform="matrix(1.4658935,0,0,1.1721166,-16.518053,-10.846027)" />
    <linearGradient
       id="linearGradient11104-770">
      <stop
         id="stop3402"
         style="stop-color:#333333;stop-opacity:1"
         offset="0" />
      <stop
         id="stop3404"
         style="stop-color:#333333;stop-opacity:0.6122449"
         offset="1" />
    </linearGradient>
    <linearGradient
       x1="41.541653"
       y1="68.291702"
       x2="41.485142"
       y2="4.5362983"
       id="linearGradient2530"
       xlink:href="#linearGradient11104-770"
       gradientUnits="userSpaceOnUse"
       gradientTransform="matrix(0.19273326,0,0,0.19831114,-0.50327822,1.0699697)" />
    <linearGradient
       id="linearGradient2300-465">
      <stop
         id="stop3396"
         style="stop-color:#343434;stop-opacity:0.97647059"
         offset="0" />
      <stop
         id="stop3398"
         style="stop-color:#929292;stop-opacity:1"
         offset="1" />
    </linearGradient>
    <linearGradient
       x1="173.09576"
       y1="75.31868"
       x2="173.09576"
       y2="11.949074"
       id="linearGradient2528"
       xlink:href="#linearGradient2300-465"
       gradientUnits="userSpaceOnUse"
       gradientTransform="matrix(0.19273326,0,0,0.19831114,-25.502932,-0.42250104)" />
    <linearGradient
       id="linearGradient6209-717">
      <stop
         id="stop3366"
         style="stop-color:#979797;stop-opacity:1"
         offset="0" />
      <stop
         id="stop3368"
         style="stop-color:#000000;stop-opacity:0.34117648"
         offset="1" />
    </linearGradient>
    <linearGradient
       x1="173.09576"
       y1="75.31868"
       x2="173.09576"
       y2="11.949074"
       id="linearGradient2525"
       xlink:href="#linearGradient6209-717"
       gradientUnits="userSpaceOnUse"
       gradientTransform="matrix(0.18354963,0,0,0.18886165,-23.862493,-0.12922033)" />
    <linearGradient
       id="linearGradient8838">
      <stop
         id="stop8840"
         style="stop-color:#7f7f7f;stop-opacity:1"
         offset="0" />
      <stop
         id="stop8842"
         style="stop-color:#808080;stop-opacity:0"
         offset="1" />
    </linearGradient>
    <radialGradient
       cx="62.625"
       cy="4.625"
       r="10.625"
       fx="62.625"
       fy="4.625"
       id="radialGradient2878"
       xlink:href="#linearGradient8838"
       gradientUnits="userSpaceOnUse"
       gradientTransform="matrix(1.0352941,0,0,0.46320168,-52.835293,15.938263)" />
  </defs>
  <g
     id="layer1">
    <path
       d="m 22.999999,18.080574 c -2.819006,6.787168 -19.3898429,7.223486 -21.999998,0 C 2.3946739,13.724944 8.0516519,13.300413 12,13.156953 c 4.079251,0.142449 9.44464,0.598291 10.999999,4.923621 z"
       id="path8836"
       style="opacity:0.4;fill:url(#radialGradient2878);fill-opacity:1;fill-rule:evenodd;stroke:none;stroke-width:0.99999988;marker:none;visibility:visible;display:inline;overflow:visible" />
    <path
       d="M 13.679117,12.5 22.413809,19.986728 21.203058,21.5 12.5,13.401362 13.679117,12.5 z"
       id="path11112"
       style="fill:url(#linearGradient2541);fill-opacity:1;fill-rule:evenodd;stroke:url(#linearGradient2543);stroke-width:1;stroke-linecap:round;stroke-linejoin:round;stroke-miterlimit:4;stroke-opacity:1;stroke-dasharray:none;display:inline" />
    <path
       d="m 21.217785,21.008568 -7.005051,-8.044248 8.475248,6.849559 -1.470197,1.194689 z"
       id="path11122"
       style="fill:url(#linearGradient2538);fill-opacity:1;fill-rule:evenodd;stroke:none;display:inline" />
    <path
       d="m 247.90924,110.29199 a 4.86685,2.6562012 0 1 1 -9.7337,0 4.86685,2.6562012 0 1 1 9.7337,0 z"
       transform="matrix(0.1837074,-0.1915779,0.2354746,0.1427652,-48.692604,51.644667)"
       id="path13082"
       style="fill:#3e3e3e;fill-opacity:1;stroke:none;display:inline" />
    <path
       d="m 14.06219,7.9649215 a 5.9050862,5.9282397 0 0 1 -11.8101725,0 5.9050862,5.9282397 0 1 1 11.8101725,0 z"
       id="path4452"
       style="fill:url(#radialGradient2514);fill-opacity:1;fill-rule:evenodd;stroke:none;stroke-width:0.88163906;marker:none;visibility:visible;display:inline" />
    <path
       d="m 7.9138536,2.8615325 c -2.9440338,0 -5.3280297,2.1947321 -5.3280297,4.905043 0,0.7827488 0.066011,1.5912378 0.4203977,2.2481195 0.7080148,0.24025 1.6317303,0.315422 2.4299887,0.315422 3.4886602,0 6.4893237,-2.6626884 6.7046157,-5.8247025 C 11.162251,3.4408097 9.5462362,2.8615325 7.9138536,2.8615325 z"
       id="path4462"
       style="opacity:0.6;fill:url(#radialGradient2533);fill-opacity:1;fill-rule:evenodd;stroke:none;stroke-width:1;marker:none;visibility:visible;display:inline;overflow:visible" />
    <path
       d="m 8.0272864,2.0450062 c -3.6265716,0 -6.5710015,2.7936477 -6.5709994,6.2344055 0,3.4407593 2.9444278,6.2344053 6.5709994,6.2344053 3.6265696,0 6.5709976,-2.793646 6.5709976,-6.2344053 0,-3.4407578 -2.944427,-6.2344055 -6.5709976,-6.2344055 z m 0.078297,0.4090169 c 3.2458046,0 5.8843876,2.4979992 5.8843876,5.5775003 0,3.0794996 -2.638583,5.5775016 -5.8843876,5.5775016 -3.2458048,0 -5.8783634,-2.498 -5.8783634,-5.5775016 0,-3.0795011 2.6325586,-5.5775003 5.8783634,-5.5775003 z"
       id="path2298"
       style="fill:url(#linearGradient2528);fill-opacity:1;stroke:url(#linearGradient2530);stroke-width:1.02489853;stroke-linecap:round;stroke-linejoin:round;stroke-miterlimit:4;stroke-opacity:1;stroke-dasharray:none;display:inline" />
    <path
       d="m 8.0694483,2.2247269 c -3.4537669,0 -6.251786,2.6601314 -6.251786,5.9369401 0,3.276807 2.7980172,5.936937 6.251786,5.936937 3.4537657,0 6.2578087,-2.660131 6.2578087,-5.936937 0,-3.2768087 -2.804045,-5.9369401 -6.2578087,-5.9369401 z m 0.036138,0.2292972 c 3.2458037,0 5.6269807,2.4980003 5.6269807,5.5775005 0,3.0795004 -2.381177,5.3126434 -5.6269807,5.3126434 -3.2458059,0 -5.6638588,-2.233142 -5.6638588,-5.3126434 0,-3.0795002 2.4180529,-5.5775005 5.6638588,-5.5775005 z"
       id="path4267"
       style="fill:url(#linearGradient2525);fill-opacity:1;stroke:none;display:inline" />
    <path
       d="m -10.7,9 0.4,0 c 0.1662,0 0.3,0.1338 0.3,0.3 l 0,1.4 c 0,0.1662 -0.1338,0.3 -0.3,0.3 l -0.4,0 c -0.1662,0 -0.3,-0.1338 -0.3,-0.3 l 0,-1.4 C -11,9.1338 -10.8662,9 -10.7,9 z m 0,1 1.4,0 c 0.1662,0 0.3,0.1338 0.3,0.3 l 0,0.4 c 0,0.1662 -0.1338,0.3 -0.3,0.3 l -1.4,0 c -0.1662,0 -0.3,-0.1338 -0.3,-0.3 l 0,-0.4 c 0,-0.1662 0.1338,-0.3 0.3,-0.3 z m 0,-3 0.4,0 c 0.1662,0 0.3,-0.1338 0.3,-0.3 l 0,-1.4 C -10,5.1338 -10.1338,5 -10.3,5 l -0.4,0 C -10.8662,5 -11,5.1338 -11,5.3 l 0,1.4 c 0,0.1662 0.1338,0.3 0.3,0.3 z m 0,-1 1.4,0 C -9.1338,6 -9,5.8662 -9,5.7 L -9,5.3 C -9,5.1338 -9.1338,5 -9.3,5 l -1.4,0 C -10.8662,5 -11,5.1338 -11,5.3 l 0,0.4 c 0,0.1662 0.1338,0.3 0.3,0.3 z m 5.4,1 -0.4,0 C -5.8662,7 -6,6.8662 -6,6.7 L -6,5.3 C -6,5.1338 -5.8662,5 -5.7,5 l 0.4,0 C -5.1338,5 -5,5.1338 -5,5.3 l 0,1.4 C -5,6.8662 -5.1338,7 -5.3,7 z m 0,-1 -1.4,0 C -6.8662,6 -7,5.8662 -7,5.7 L -7,5.3 C -7,5.1338 -6.8662,5 -6.7,5 l 1.4,0 C -5.1338,5 -5,5.1338 -5,5.3 l 0,0.4 C -5,5.8662 -5.1338,6 -5.3,6 z m 0,3 -0.4,0 C -5.8662,9 -6,9.1338 -6,9.3 l 0,1.4 c 0,0.1662 0.1338,0.3 0.3,0.3 l 0.4,0 C -5.1338,11 -5,10.8662 -5,10.7 L -5,9.3 C -5,9.1338 -5.1338,9 -5.3,9 z m 0,1 -1.4,0 C -6.8662,10 -7,10.1338 -7,10.3 l 0,0.4 c 0,0.1662 0.1338,0.3 0.3,0.3 l 1.4,0 c 0.1662,0 0.3,-0.1338 0.3,-0.3 l 0,-0.4 C -5,10.1338 -5.1338,10 -5.3,10 z"
       transform="scale(-1,1)"
       id="rect2866"
       style="fill:#4d4d4d;fill-opacity:1;stroke:none" />
  </g>
</svg>

<?xml version="1.0" encoding="UTF-8" standalone="no"?>
<!-- Created with Inkscape (http://www.inkscape.org/) -->
<svg id="svg2" xmlns="http://www.w3.org/2000/svg" height="24" width="24" version="1.0" xmlns:xlink="http://www.w3.org/1999/xlink">
 <defs id="defs4">
  <linearGradient id="linearGradient2543" y2="29.484" gradientUnits="userSpaceOnUse" x2="31.364" gradientTransform="matrix(.50188 0 0 .46221 -.38034 1.903)" y1="27.988" x1="32.893">
   <stop id="stop3378" style="stop-color:#575757" offset="0"/>
   <stop id="stop3380" style="stop-color:#333" offset="1"/>
  </linearGradient>
  <linearGradient id="linearGradient2541" y2="91.973" gradientUnits="userSpaceOnUse" x2="-164.72" gradientTransform="matrix(.19535 0 0 .17991 50.002 -.89127)" y1="99.667" x1="-172.65">
   <stop id="stop3372" style="stop-color:#242424;stop-opacity:.99216" offset="0"/>
   <stop id="stop3374" style="stop-color:#656565" offset="1"/>
  </linearGradient>
  <linearGradient id="linearGradient2538" y2="74.262" gradientUnits="userSpaceOnUse" x2="210.58" gradientTransform="matrix(.19535 0 0 .17991 -25.223 .84739)" y1="123.74" x1="212.04">
   <stop id="stop3296" style="stop-color:#fff;stop-opacity:.19521" offset="0"/>
   <stop id="stop3298" style="stop-color:#fff;stop-opacity:0" offset="1"/>
  </linearGradient>
  <radialGradient id="radialGradient2514" gradientUnits="userSpaceOnUse" cy="21.818" cx="18.241" gradientTransform="matrix(.71073 0 0 .71351 -4.3441 -5.2196)" r="8.3085">
   <stop id="stop3408" style="stop-color:#fff;stop-opacity:.64726" offset="0"/>
   <stop id="stop3410" style="stop-color:#fff;stop-opacity:.19521" offset="1"/>
  </radialGradient>
  <radialGradient id="radialGradient2533" gradientUnits="userSpaceOnUse" cy="13.078" cx="15.414" gradientTransform="matrix(1.4659 0 0 1.1721 -16.518 -10.846)" r="6.6562">
   <stop id="stop3390" style="stop-color:#fff" offset="0"/>
   <stop id="stop3392" style="stop-color:#fff;stop-opacity:.24762" offset="1"/>
  </radialGradient>
  <linearGradient id="linearGradient2530" y2="4.5363" gradientUnits="userSpaceOnUse" x2="41.485" gradientTransform="matrix(.19273 0 0 .19831 -.50328 1.07)" y1="68.292" x1="41.542">
   <stop id="stop3402" style="stop-color:#333" offset="0"/>
   <stop id="stop3404" style="stop-color:#333;stop-opacity:.61224" offset="1"/>
  </linearGradient>
  <linearGradient id="linearGradient2528" y2="11.949" gradientUnits="userSpaceOnUse" x2="173.1" gradientTransform="matrix(.19273 0 0 .19831 -25.503 -.42250)" y1="75.319" x1="173.1">
   <stop id="stop3396" style="stop-color:#343434;stop-opacity:.97647" offset="0"/>
   <stop id="stop3398" style="stop-color:#929292" offset="1"/>
  </linearGradient>
  <linearGradient id="linearGradient2525" y2="11.949" gradientUnits="userSpaceOnUse" x2="173.1" gradientTransform="matrix(.18355 0 0 .18886 -23.862 -.12922)" y1="75.319" x1="173.1">
   <stop id="stop3366" style="stop-color:#979797" offset="0"/>
   <stop id="stop3368" style="stop-opacity:.34118" offset="1"/>
  </linearGradient>
  <radialGradient id="radialGradient2878" gradientUnits="userSpaceOnUse" cy="4.625" cx="62.625" gradientTransform="matrix(1.0353 0 0 .46320 -52.835 15.938)" r="10.625">
   <stop id="stop8840" style="stop-color:#7f7f7f" offset="0"/>
   <stop id="stop8842" style="stop-color:#808080;stop-opacity:0" offset="1"/>
  </radialGradient>
 </defs>
 <g id="layer1">
  <path id="path8836" style="opacity:.4;fill-rule:evenodd;fill:url(#radialGradient2878)" d="m23 18.081c-2.819 6.7872-19.39 7.2235-22 0 1.3947-4.356 7.0517-4.781 11-4.924 4.0793 0.14245 9.4446 0.59829 11 4.9236z"/>
  <path id="path11112" style="stroke-linejoin:round;fill-rule:evenodd;stroke:url(#linearGradient2543);stroke-linecap:round;fill:url(#linearGradient2541)" d="m13.679 12.5 8.735 7.487-1.211 1.513-8.703-8.099 1.179-0.901z"/>
  <path id="path11122" style="fill:url(#linearGradient2538);fill-rule:evenodd" d="m21.218 21.009-7.0051-8.0442 8.4752 6.8496-1.4702 1.1947z"/>
  <path id="path13082" style="fill:#3e3e3e" d="m247.91 110.29a4.8668 2.6562 0 1 1 -9.7337 0 4.8668 2.6562 0 1 1 9.7337 0z" transform="matrix(.18371 -.19158 .23547 .14277 -48.693 51.645)"/>
  <path id="path4452" style="fill-rule:evenodd;fill:url(#radialGradient2514)" d="m14.062 7.9649a5.9051 5.9282 0 0 1 -11.81 0 5.9051 5.9282 0 1 1 11.81 0z"/>
  <path id="path4462" style="opacity:.6;fill-rule:evenodd;fill:url(#radialGradient2533)" d="m7.9139 2.8615c-2.944 0-5.328 2.1947-5.328 4.905 0 0.78275 0.066011 1.5912 0.4204 2.2481 0.70801 0.24025 1.6317 0.31542 2.43 0.31542 3.4887 0 6.4893-2.6627 6.7046-5.8247-0.979-1.0645-2.5948-1.6438-4.2271-1.6438z"/>
  <path id="path2298" style="stroke-linejoin:round;stroke:url(#linearGradient2530);stroke-linecap:round;stroke-width:1.0249;fill:url(#linearGradient2528)" d="m8.0273 2.045c-3.6266 0-6.571 2.7936-6.571 6.2344s2.9444 6.2344 6.571 6.2344 6.571-2.7936 6.571-6.2344-2.9444-6.2344-6.571-6.2344zm0.078297 0.40902c3.2458 0 5.8844 2.498 5.8844 5.5775s-2.6386 5.5775-5.8844 5.5775-5.8784-2.498-5.8784-5.5775 2.6326-5.5775 5.8784-5.5775z"/>
  <path id="path4267" style="fill:url(#linearGradient2525)" d="m8.0694 2.2247c-3.4538 0-6.2518 2.6601-6.2518 5.9369s2.798 5.9369 6.2518 5.9369 6.2578-2.6601 6.2578-5.9369-2.804-5.9369-6.2578-5.9369zm0.036138 0.2293c3.2458 0 5.627 2.498 5.627 5.5775s-2.3812 5.3126-5.627 5.3126-5.6639-2.2331-5.6639-5.3126 2.4181-5.5775 5.6639-5.5775z"/>
  <path id="rect2866" style="fill:#4d4d4d" d="m-10.7 9h0.4c0.1662 0 0.3 0.1338 0.3 0.3v1.4c0 0.1662-0.1338 0.3-0.3 0.3h-0.4c-0.1662 0-0.3-0.1338-0.3-0.3v-1.4c0-0.1662 0.134-0.3 0.3-0.3zm0 1h1.4c0.1662 0 0.3 0.1338 0.3 0.3v0.4c0 0.1662-0.1338 0.3-0.3 0.3h-1.4c-0.1662 0-0.3-0.1338-0.3-0.3v-0.4c0-0.1662 0.1338-0.3 0.3-0.3zm0-3h0.4c0.1662 0 0.3-0.1338 0.3-0.3v-1.4c0-0.1662-0.134-0.3-0.3-0.3h-0.4c-0.166 0-0.3 0.1338-0.3 0.3v1.4c0 0.1662 0.1338 0.3 0.3 0.3zm0-1h1.4c0.1662 0 0.3-0.1338 0.3-0.3v-0.4c0-0.1662-0.1338-0.3-0.3-0.3h-1.4c-0.166 0-0.3 0.1338-0.3 0.3v0.4c0 0.1662 0.1338 0.3 0.3 0.3zm5.4 1h-0.4c-0.1662 0-0.3-0.1338-0.3-0.3v-1.4c0-0.1662 0.1338-0.3 0.3-0.3h0.4c0.1662 0 0.3 0.1338 0.3 0.3v1.4c0 0.1662-0.1338 0.3-0.3 0.3zm0-1h-1.4c-0.1662 0-0.3-0.1338-0.3-0.3v-0.4c0-0.1662 0.1338-0.3 0.3-0.3h1.4c0.1662 0 0.3 0.1338 0.3 0.3v0.4c0 0.1662-0.1338 0.3-0.3 0.3zm0 3h-0.4c-0.1662 0-0.3 0.1338-0.3 0.3v1.4c0 0.1662 0.1338 0.3 0.3 0.3h0.4c0.1662 0 0.3-0.134 0.3-0.3v-1.4c0-0.1662-0.1338-0.3-0.3-0.3zm0 1h-1.4c-0.1662 0-0.3 0.134-0.3 0.3v0.4c0 0.1662 0.1338 0.3 0.3 0.3h1.4c0.1662 0 0.3-0.1338 0.3-0.3v-0.4c0-0.166-0.1338-0.3-0.3-0.3z" transform="scale(-1,1)"/>
 </g>
</svg>
